fs/note_16_filled.svg

<svg viewBox="0 0 16 16" fill="none" xmlns="http://www.w3.org/2000/svg" height="1em" width="1em">
  <path d="M2 4.5C2 3.11929 3.11929 2 4.5 2H11.5C12.8807 2 14 3.11929 14 4.5V8H10.5C9.11929 8 8 9.11929 8 10.5V14H4.5C3.11929 14 2 12.8807 2 11.5V4.5ZM9 13.8588C9.35015 13.7358 9.67192 13.5352 9.93934 13.2678L13.2678 9.93934C13.5352 9.67192 13.7358 9.35015 13.8588 9H10.5C9.67157 9 9 9.67157 9 10.5V13.8588Z" fill="#212121"/>
</svg>

<svg viewBox="0 0 16 16" fill="none" xmlns="http://www.w3.org/2000/svg" height="1em" width="1em">
  <path d="M2 4.5A2.5 2.5 0 0 1 4.5 2h7A2.5 2.5 0 0 1 14 4.5V8h-3.5A2.5 2.5 0 0 0 8 10.5V14H4.5A2.5 2.5 0 0 1 2 11.5v-7Zm7 9.359a2.5 2.5 0 0 0 .94-.591l3.328-3.329a2.5 2.5 0 0 0 .59-.939H10.5A1.5 1.5 0 0 0 9 10.5v3.359Z" fill="#212121"/>
</svg>
